arb/images/icons/3.svg

<svg width="101" height="100" viewBox="0 0 101 100" fill="none" xmlns="http://www.w3.org/2000/svg">
<g clip-path="url(#clip0)">
<path d="M86.1659 17.9316C93.7561 26.4705 98.405 37.666 98.405 49.9051C98.405 76.4705 76.868 98.0075 50.3025 98.0075C23.7371 98.0075 2.20007 76.5654 2.20007 49.9999C2.20007 23.4345 23.7371 1.89746 50.3025 1.89746C59.6005 1.89746 68.2342 4.55401 75.5397 9.10809" stroke="#E63946" stroke-width="3" stroke-miterlimit="10" stroke-linecap="round" stroke-linejoin="round"/>
<path d="M43.1868 62.5238C46.4126 65.7496 51.6308 65.7496 54.9515 62.5238C58.1773 59.298 58.1773 54.0798 54.9515 50.7591L49.164 44.9716L27.9117 23.7192" stroke="#E63946" stroke-width="3" stroke-miterlimit="10" stroke-linecap="round" stroke-linejoin="round"/>
<path d="M55.331 51.3284C56.849 52.8464 57.7029 54.8389 57.7029 57.1159C57.7029 59.3929 56.7542 61.4802 55.331 62.9034C53.9079 64.3265 51.8206 65.2753 49.5435 65.2753C47.2665 65.2753 45.1792 64.3265 43.7561 62.9034C42.3329 61.4802 41.3842 59.3929 41.3842 57.1159C41.3842 54.8389 43.6612 51.4233 45.1792 49.9053" stroke="#E63946" stroke-width="3" stroke-miterlimit="10" stroke-linecap="round" stroke-linejoin="round"/>
<path d="M89.1071 4.93359L54.7618 40.2277" stroke="#E63946" stroke-width="3" stroke-miterlimit="10" stroke-linecap="round" stroke-linejoin="round"/>
<path d="M50.3026 7.96973V16.224" stroke="#E63946" stroke-width="3" stroke-miterlimit="10" stroke-linecap="round" stroke-linejoin="round"/>
<path d="M50.3026 83.7764V92.0306" stroke="#E63946" stroke-width="3" stroke-miterlimit="10" stroke-linecap="round" stroke-linejoin="round"/>
<path d="M8.27219 50H16.5265" stroke="#E63946" stroke-width="3" stroke-miterlimit="10" stroke-linecap="round" stroke-linejoin="round"/>
<path d="M84.0786 50H92.3329" stroke="#E63946" stroke-width="3" stroke-miterlimit="10" stroke-linecap="round" stroke-linejoin="round"/>
</g>
<defs>
<clipPath id="clip0">
<rect width="100" height="100" fill="white" transform="translate(0.302551)"/>
</clipPath>
</defs>
</svg>

<svg width="101" height="100" fill="none" xmlns="http://www.w3.org/2000/svg"><g clip-path="url(#clip0)" stroke="#E63946" stroke-width="3" stroke-miterlimit="10" stroke-linecap="round" stroke-linejoin="round"><path d="M86.166 17.932c7.59 8.539 12.239 19.734 12.239 31.973 0 26.566-21.537 48.102-48.102 48.102C23.737 98.007 2.2 76.565 2.2 50c0-26.566 21.537-48.103 48.102-48.103A47.522 47.522 0 0175.54 9.108"/><path d="M43.187 62.524c3.226 3.226 8.444 3.226 11.765 0 3.225-3.226 3.225-8.444 0-11.765l-5.788-5.787-21.252-21.253"/><path d="M55.331 51.328c1.518 1.518 2.372 3.51 2.372 5.788 0 2.277-.949 4.364-2.372 5.787s-3.51 2.372-5.788 2.372c-2.276 0-4.364-.949-5.787-2.372s-2.372-3.51-2.372-5.787 2.277-5.693 3.795-7.21M89.107 4.934L54.762 40.228M50.303 7.97v8.254m0 67.552v8.255M8.272 50h8.254m67.553 0h8.254"/></g><defs><clipPath id="clip0"><path fill="#fff" transform="translate(.303)" d="M0 0h100v100H0z"/></clipPath></defs></svg>
